X:2890
T:Charlie Mulvihill's
R:reel
C:Ed Reavy
M:2/2
L:1/8
Z:Joe Reavy
N:Named for a very popular musician who was 
N:born in the Bronx of Irish parents. 
N:He probably knew more tunes than any musician 
N:in Ed's memory. He had a great love 
N:for the tradition and this was reflected 
N:in his sensitive renditions of the countless tunes he knew.
K:D
A2 FA DAFA|G2 E=C EFGB|(3ABA FA DAFA|defd ^cAGE|
A2 FA DAFA|(3GGF E=C EFGB|AB^Cd fded|cAGE DEFG:||
d2 fd fafd|e=c (3cBc efge|d2 fd fafd|cAGE EDDc|
d2 fd fafd|e=c (3cBc efge|defg abag|eaag eddc:||


